src/svg/message.svg

<svg version="1.2" baseProfile="tiny" xmlns="http://www.w3.org/2000/svg" width="24" height="24" viewBox="0 0 24 24"><path d="M18 7c.542 0 1 .458 1 1v7c0 .542-.458 1-1 1h-8.829l-.171.171v-.171h-3c-.542 0-1-.458-1-1v-7c0-.542.458-1 1-1h12m0-2h-12c-1.65 0-3 1.35-3 3v7c0 1.65 1.35 3 3 3h1v3l3-3h8c1.65 0 3-1.35 3-3v-7c0-1.65-1.35-3-3-3z"/></svg>

<?xml version="1.0" encoding="iso-8859-1"?>
<!-- Generator: Adobe Illustrator 16.2.1, SVG Export Plug-In . SVG Version: 6.00 Build 0)  -->
<svg version="1.2" baseProfile="tiny" id="Layer_1" xmlns="http://www.w3.org/2000/svg" xmlns:xlink="http://www.w3.org/1999/xlink"
	 x="0px" y="0px" width="24px" height="24px" viewBox="0 0 24 24" xml:space="preserve">
<g>
	<path d="M18,7c0.542,0,1,0.458,1,1v7c0,0.542-0.458,1-1,1h-8H9.171L9,16.171V16H7H6c-0.542,0-1-0.458-1-1V8c0-0.542,0.458-1,1-1H18
		 M18,5H6C4.35,5,3,6.35,3,8v7c0,1.65,1.35,3,3,3h1v3l3-3h8c1.65,0,3-1.35,3-3V8C21,6.35,19.65,5,18,5z"/>
</g>
</svg>
